X:1
T:Nade Mlejnem, Pode Mlejnem
C:traditionell
A:Tschechische Republik
%%textfont Helvetica-Narrow 10pt
%%begintext align
D:Josef Rezny, The Hidden Spell Of The Cech Bagpipe/Hr\`aly dudy 71 0129 711 BONTON Music 1993
N:auf diesem tontraeger nr. 18
%%endtext
Z:abc transcription Simon Wascher
M:2/4
L:1/8
K:G
GB dg | ed Bd | dc Ac | B2 B2|
GB dg | ed Bd | dc Ac | B2 B2 ||
dc Ac | ed Bd | dc Ac | ed B2|
GB dg | ed Bd | dc Ac | B2 B2 |]
